src/telerik-icons/solid/grid.svg

<?xml version="1.0" encoding="utf-8"?>
<svg xmlns="http://www.w3.org/2000/svg" width="512" height="512" viewBox="0 0 512 512">
  <path d="M32 32h128v128H32V32zm160 448h128V352H192v128zm-160 0h128V352H32v128zm0-160h128V192H32v128zm160 0h128V192H192v128zM352 32v128h128V32H352zm0 288h128V192H352v128zM192 160h128V32H192v128zm160 320h128V352H352v128z"/>
</svg>

<?xml version="1.0" encoding="utf-8"?>
<!-- Generator: Adobe Illustrator 16.0.3, SVG Export Plug-In . SVG Version: 6.00 Build 0)  -->
<svg xmlns="http://www.w3.org/2000/svg" width="512" height="512" viewBox="0 0 512 512">
<path d="M32,32h128v128H32V32z M192,480h128V352H192V480z M32,480h128V352H32V480z M32,320h128V192H32V320z M192,320h128V192H192
	V320z M352,32v128h128V32H352z M352,320h128V192H352V320z M192,160h128V32H192V160z M352,480h128V352H352V480z" />
</svg>
